!! Stephen C. Foster, "I'm Nothing but a Plain Old Soldier"
!! from 'Stephen Foster Song Book' Dover Publications (New York) pp. 85-87
!! NOTE:  Leading and trailing bars of rest have been omitted.
**kern
*M4/4
*MM92
*F:
4f
=1
8a
8a
8g
8f
4g
4c
=2
4f
4f
4.r
8cc
=3
4cc
8a
8cc
8dd
8cc
8a
8f
=4
4g
4g
4r
8f
8g
=5
4a
8b-
8b-
4cc
8r
8cc
=6
8dd
8cc
8dd
8ee
4ff;
8r
16ee
16dd
=7
8cc
8b-
8a
8f
4g
8c
8e
=8
4f
8f
8g
4f
8r
8g
=9
4g
8e
8f
8g
4ee
8dd
=10
4cc
4a
4a
8cc
8a
=11
4g
4e
4e
8d
8c
=12
4e
4d
4d
8.r
16g
=13
4g
8e
8f
4g
8ee
8dd
=14
4cc
4a
4a
8b-
8cc
=15
8g'
8a'
8f'
8g'
4e
4d
=16
2c
4cc;
4r
=17
8a
8a
8g
8f
4g
4c
=18
4f
4f
4r
8r
8cc
=19
4cc
8a
8cc
8dd
8cc
8a
8f
=20
4g
4g
4r
8f
8g
=21
4a
8b-
8b-
4cc
8r
8cc
=22
8dd
8cc
8dd
8ee
4ff;
8r
16ee
16dd
=23
8cc
8b-
8a
8f
4g
8c;
16r;
16e
=24
4f
8f
8g
4f
==
*-
